img/logos/optimizely.svg

<?xml version="1.0" encoding="UTF-8" standalone="no"?>
<svg width="512px" height="110px" viewBox="0 0 512 110" version="1.1" xmlns="http://www.w3.org/2000/svg" xmlns:xlink="http://www.w3.org/1999/xlink" preserveAspectRatio="xMinYMin meet">
	<g fill="#707070">
		<path d="M89.2851845,49.9872346 L90.3489748,39.3466037 C90.1471274,34.4586235 88.985141,30.0479852 86.8957477,25.9946713 L81.306757,33.724881 C82.0786869,36.2997991 82.389641,39.0792923 82.1577893,41.9815305 C81.093999,55.2761819 69.0158873,66.0531962 55.17843,66.0531962 C51.929778,66.0531962 48.8720628,65.4585647 46.1116633,64.3784083 L79.5201348,29.4779027 L93.6276311,15.168559 L83.5761764,20.4820553 C76.9124847,12.0944777 66.2036621,7.11375684 53.923703,7.60473699 C32.8006459,8.45031392 14.8525937,25.6346192 13.8379014,45.9912017 C12.8232091,66.3450566 29.1210224,82.1600728 50.2440795,81.3172235 C68.8740486,80.5725703 85.0327508,67.1142588 89.2851845,49.9872346 L89.2851845,49.9872346 Z M127.229767,58.3993612 C127.802577,52.6930808 127.327963,48.5497538 125.81138,45.9748357 C124.330257,43.4026453 121.725334,42.1151862 118.002068,42.1124585 C116.365467,42.1124585 114.704318,42.3743146 113.018619,42.8952991 C111.365653,43.4162836 109.704503,44.1991242 108.032443,45.2438208 L105.083835,74.7380895 C106.013969,75.1554226 107.045028,75.4527384 108.179737,75.6273091 C109.344451,75.8018798 110.727379,75.8864375 112.331247,75.8864375 C116.785528,75.8864375 120.236028,74.4435014 122.682745,71.5549015 C125.126735,68.630842 126.643319,64.2447526 127.229767,58.3993612 L127.229767,58.3993612 Z M168.450278,89.3011063 C161.001018,89.3011063 155.725709,87.7736125 152.621624,84.7077142 C149.55027,81.6445436 148.363735,76.6338184 149.062018,69.672811 L151.803324,42.2679356 L145.128721,42.2679356 C146.28798,46.6840293 146.563474,51.9402445 145.955204,58.0338537 C145.019614,67.3952086 141.880069,74.9481199 136.539296,80.68986 C131.231255,86.4316001 125.096731,89.3011063 118.138451,89.3011063 C115.214392,89.3011063 112.704938,88.9710585 110.615544,88.310963 C108.523423,87.6481398 106.330379,86.6225368 104.033683,85.2314264 L101.589693,109.660417 L83.3197756,109.660417 L86.6284363,76.5628991 C76.8715697,89.6256987 61.4356993,98.2178514 44.7014592,98.2178514 C17.9321303,98.2178514 -2.00711911,76.2328513 0.161376556,49.1089257 C2.33259989,21.9850001 25.7905404,0 52.5598692,0 C66.1300151,0 77.9462707,5.64899939 86.0147111,14.7566812 L101.412394,8.85946404 L92.3156231,24.0252953 C93.2130257,25.7928239 93.9958662,27.6312718 94.6614171,29.532456 L109.600852,29.532456 L108.989854,35.6397036 C111.897548,33.3430075 114.816152,31.4800106 117.742939,30.0534405 C120.669727,28.6268704 123.956566,27.9149492 127.614368,27.9122215 C130.650262,27.9122215 133.323376,28.4522997 135.636438,29.5297284 L153.074417,29.5297284 L154.749204,12.7709392 L173.021849,12.7709392 L171.344334,29.5297284 L188.937789,29.5297284 L187.663968,42.2679356 L170.070513,42.2679356 L167.99203,63.0445789 C167.787455,65.0985126 167.623795,66.8905901 167.506505,68.4208116 C167.386488,69.9537607 167.528327,71.3285051 167.929294,72.5450448 C168.294801,73.7643122 169.050365,74.7380895 170.195986,75.4691044 C171.379793,76.1673873 173.152777,76.5138011 175.520392,76.5138011 C176.49417,76.5138011 177.784357,76.3037707 179.39368,75.8864375 C181.035736,75.4691044 182.186812,75.087231 182.849635,74.7380895 L184.415316,74.7380895 L183.127857,87.6317738 C181.09029,88.1527583 178.946343,88.5537254 176.690562,88.8319475 C174.432053,89.1456292 171.685292,89.3011063 168.450278,89.3011063 L168.450278,89.3011063 Z M32.045082,41.9815305 C33.1088723,28.6868791 45.1897117,17.9071371 59.0271689,17.9071371 C65.9636273,17.9071371 72.0272322,20.6184386 76.2142018,24.9936173 L35.1818996,55.3334629 C32.8306502,51.5147284 31.6522978,46.9213363 32.045082,41.9815305 L32.045082,41.9815305 Z M205.333798,88.1527583 L187.063881,88.1527583 L192.925639,29.5297284 L211.195556,29.5297284 L205.333798,88.1527583 L205.333798,88.1527583 Z M212.553934,21.1776105 L193.239321,21.1776105 L194.663163,6.92827545 L213.977777,6.92827545 L212.553934,21.1776105 L212.553934,21.1776105 Z M279.57818,88.1527583 L282.507695,58.86852 C282.796828,55.9799201 282.987764,53.5468407 283.080505,51.5610988 C283.173246,49.5780845 283.023224,47.95785 282.624985,46.7058506 C282.229473,45.4511236 281.501186,44.5482656 280.442851,43.9918214 C279.422703,43.4026453 277.922486,43.1053295 275.939472,43.1053295 C274.545633,43.1053295 273.140885,43.4190113 271.71977,44.0436471 C270.30411,44.635551 268.738429,45.4893109 267.028182,46.6021992 L262.871217,88.1554859 L244.497648,88.1554859 L247.427163,58.8712477 C247.710841,56.0181075 247.882684,53.6013941 247.942692,51.6156521 C248.040888,49.5971782 247.890867,47.9633053 247.492627,46.7085783 C247.097115,45.4538512 246.3661,44.5509933 245.310493,43.9945491 C244.290346,43.4053729 242.806494,43.1080572 240.85894,43.1080572 C239.36145,43.1080572 237.863961,43.4571986 236.369199,44.1527538 C234.87171,44.848309 233.398769,45.6666093 231.94765,46.6076546 L227.793412,88.1609413 L209.523496,88.1609413 L215.385253,29.5379114 L233.657898,29.5379114 L233.008713,36.0106663 C236.254637,33.4712079 239.271437,31.485466 242.059113,30.0588959 C244.84679,28.6323258 247.893594,27.9204045 251.199527,27.9176769 C254.783682,27.9176769 257.846853,28.7714368 260.391767,30.476229 C262.936681,32.1837488 264.750579,34.7232073 265.841646,38.097332 C269.682202,34.8268586 273.239081,32.3201322 276.512282,30.5798803 C279.820942,28.8041688 283.07505,27.9176769 286.280059,27.9176769 C288.994088,27.9176769 291.386253,28.3541037 293.456552,29.2215019 C295.526852,30.0916279 297.223461,31.3981806 298.54638,33.1357048 C299.992044,35.0150677 300.987642,37.2599381 301.52772,39.8703159 C302.105986,42.445234 302.185088,45.8220863 301.767755,49.9981453 L297.951748,88.1582136 L279.57818,88.1582136 L279.57818,88.1527583 Z M327.16234,21.1776105 L307.847726,21.1776105 L309.274296,6.92827545 L328.58891,6.92827545 L327.16234,21.1776105 L327.16234,21.1776105 Z M374.591022,74.1625517 C372.430709,69.6373513 371.677873,64.1165523 372.329786,57.6001546 C373.287197,48.031497 376.800433,40.3913003 382.869493,34.6822923 C388.938553,28.9760119 396.914253,26.1228717 406.79932,26.120144 C415.776074,26.120144 422.287016,28.5395851 426.326691,33.3757395 C430.366367,38.2146217 431.934776,45.1401695 431.034646,54.1523829 L430.377278,60.7287892 L390.337846,60.7287892 C390.23965,63.4428184 390.586064,65.7258761 391.377088,67.5670517 C392.170839,69.3782229 393.313732,70.821159 394.808494,71.8985876 C396.267796,72.978744 398.01623,73.7615845 400.053798,74.2471094 C402.096821,74.7026298 404.352602,74.9262986 406.823869,74.9262986 C408.945994,74.9262986 411.057209,74.7026298 413.154785,74.2471094 C415.255089,73.7615845 417.197188,73.134221 418.981083,72.3677465 C420.544036,71.7076509 421.986972,70.9957297 423.318074,70.2265275 C424.681908,69.4627806 425.794796,68.7835914 426.654012,68.1889598 L428.5852,68.1889598 L427.0768,83.2756888 C425.52203,83.8675926 424.092732,84.4240368 422.786179,84.9450213 C421.517814,85.4332738 419.780289,85.9378923 417.570879,86.4588768 C415.536039,86.9798613 413.44119,87.3808284 411.291788,87.6590505 C409.704286,87.8963575 407.857655,88.0409239 405.757351,88.1009326 L319.939476,88.1445753 L318.057385,88.1445753 L301.669559,88.1445753 L307.534044,29.5215454 L325.803961,29.5215454 L321.368774,73.8761466 L350.530267,43.2498959 L328.766208,43.3289982 L330.348255,29.8897805 L374.610116,29.5215454 L373.426308,41.370533 L342.115413,74.1543687 L374.591022,74.1543687 L374.591022,74.1625517 Z M413.471195,49.7171955 C413.752144,45.8548183 413.141147,42.9143928 411.638202,40.8959188 C410.170717,38.8774449 407.693995,37.8709356 404.216219,37.8682079 C400.667523,37.8682079 397.776196,38.9292706 395.544964,41.0513959 C393.349191,43.1762489 391.963536,46.0621211 391.390726,49.7171955 L413.471195,49.7171955 L413.471195,49.7171955 Z M512,27.9476812 L474.388193,108.078369 L454.759898,108.078369 L465.926968,85.1632347 L453.475166,40.0367036 L448.821765,86.5707111 L430.549121,86.5707111 L438.672115,5.34350063 L456.942032,5.34350063 L454.680795,27.9476812 L469.347463,27.9476812 L477.991442,64.7002731 L493.203643,27.9476812 L512,27.9476812 L512,27.9476812 Z"></path>
	</g>
</svg>

<svg width="512" height="110" viewBox="0 0 512 110" xmlns="http://www.w3.org/2000/svg" preserveAspectRatio="xMinYMin meet"><path d="M89.285 49.987l1.064-10.64c-.203-4.888-1.365-9.3-3.454-13.352l-5.59 7.73c.773 2.575 1.084 5.354.852 8.257-1.064 13.294-13.142 24.07-26.98 24.07-3.248 0-6.306-.593-9.066-1.674l33.408-34.9 14.108-14.31-10.052 5.314C76.912 12.094 66.204 7.114 53.924 7.605 32.8 8.45 14.854 25.635 13.838 45.99 12.823 66.346 29.12 82.16 50.244 81.318c18.63-.744 34.79-14.203 39.04-31.33zM127.23 58.4c.573-5.707.098-9.85-1.42-12.425-1.48-2.572-4.085-3.86-7.808-3.863-1.637 0-3.298.262-4.983.783-1.654.52-3.315 1.304-4.988 2.35l-2.948 29.493c.93.417 1.96.715 3.096.89 1.164.174 2.547.258 4.15.258 4.456 0 7.906-1.442 10.353-4.33 2.444-2.925 3.96-7.31 4.547-13.157zm41.22 30.9c-7.45 0-12.724-1.526-15.828-4.592-3.072-3.063-4.258-8.074-3.56-15.035l2.74-27.405h-6.673c1.158 4.416 1.433 9.672.825 15.766-.935 9.36-4.075 16.914-9.416 22.656-5.31 5.742-11.443 8.61-18.402 8.61-2.924 0-5.433-.33-7.522-.99-2.093-.662-4.286-1.687-6.582-3.08l-2.444 24.43H83.32l3.308-33.097C76.872 89.626 61.436 98.218 44.7 98.218c-26.768 0-46.707-21.985-44.54-49.11C2.334 21.986 25.79 0 52.56 0c13.57 0 25.386 5.65 33.455 14.757l15.397-5.898-9.096 15.165c.897 1.768 1.68 3.606 2.345 5.507h14.94l-.61 6.108c2.908-2.297 5.826-4.16 8.753-5.587 2.927-1.426 6.214-2.138 9.87-2.14 3.037 0 5.71.54 8.023 1.617h17.438l1.675-16.76h18.272l-1.678 16.76h17.594l-1.274 12.738H170.07l-2.078 20.777c-.205 2.054-.368 3.846-.485 5.376-.12 1.534.02 2.91.422 4.125.365 1.22 1.12 2.193 2.266 2.924 1.184.697 2.957 1.044 5.324 1.044.974 0 2.264-.21 3.874-.628 1.642-.417 2.793-.8 3.456-1.148h1.565l-1.287 12.894c-2.038.52-4.182.922-6.437 1.2-2.258.314-5.005.47-8.24.47zM32.045 41.983C33.11 28.687 45.19 17.907 59.027 17.907c6.937 0 13 2.71 17.187 7.087l-41.032 30.34c-2.35-3.82-3.53-8.413-3.137-13.352zm173.29 46.17h-18.27l5.86-58.622h18.27l-5.86 58.623zm7.22-66.974h-19.316l1.423-14.25h19.315l-1.424 14.25zm67.023 66.975l2.93-29.284c.29-2.89.48-5.323.573-7.31.093-1.982-.057-3.602-.455-4.854-.396-1.255-1.124-2.158-2.182-2.714-1.02-.59-2.52-.887-4.504-.887-1.394 0-2.8.314-4.22.94-1.416.59-2.982 1.444-4.692 2.557l-4.157 41.553H244.5l2.93-29.284c.283-2.852.455-5.27.515-7.254.098-2.02-.052-3.653-.45-4.907-.396-1.256-1.127-2.16-2.183-2.715-1.02-.59-2.504-.887-4.45-.887-1.5 0-2.996.35-4.49 1.045-1.498.695-2.97 1.514-4.422 2.455l-4.155 41.553h-18.27l5.862-58.622h18.273l-.65 6.473c3.247-2.54 6.263-4.525 9.05-5.95 2.79-1.428 5.836-2.14 9.142-2.142 3.584 0 6.647.853 9.192 2.558 2.545 1.708 4.36 4.247 5.45 7.62 3.84-3.27 7.397-5.776 10.67-7.516 3.31-1.776 6.563-2.662 9.768-2.662 2.714 0 5.106.436 7.177 1.304 2.07.87 3.766 2.176 5.09 3.914 1.445 1.88 2.44 4.124 2.98 6.734.58 2.575.658 5.952.24 10.128l-3.815 38.16h-18.374v-.005zm47.584-66.975h-19.314l1.426-14.25h19.315l-1.428 14.25zm47.43 52.985c-2.16-4.526-2.914-10.046-2.262-16.563.957-9.57 4.47-17.21 10.54-22.918 6.07-5.706 14.044-8.56 23.93-8.562 8.976 0 15.487 2.42 19.527 7.256 4.04 4.84 5.608 11.764 4.708 20.776l-.658 6.577h-40.04c-.097 2.713.25 4.996 1.04 6.837.794 1.81 1.937 3.254 3.43 4.332 1.46 1.08 3.21 1.862 5.247 2.347 2.043.456 4.3.68 6.77.68 2.122 0 4.233-.224 6.33-.68 2.1-.485 4.043-1.113 5.827-1.88 1.564-.66 3.007-1.37 4.338-2.14 1.364-.764 2.477-1.443 3.336-2.038h1.93l-1.507 15.086c-1.555.592-2.984 1.148-4.29 1.67-1.27.487-3.007.992-5.216 1.513-2.034.52-4.13.92-6.278 1.2-1.588.236-3.434.38-5.535.44l-85.818.045h-18.27l5.864-58.623h18.27l-4.435 44.354 29.16-30.626-21.764.08 1.582-13.44 44.262-.368-1.184 11.85-31.31 32.782h32.475v.01zm38.88-24.446c.28-3.862-.33-6.803-1.834-8.82-1.467-2.02-3.944-3.026-7.422-3.03-3.548 0-6.44 1.062-8.67 3.184-2.197 2.126-3.582 5.012-4.155 8.667h22.08zM512 27.947l-37.612 80.13H454.76l11.167-22.914-12.452-45.126-4.653 46.534H430.55l8.122-81.226h18.27l-2.26 22.604h14.665L477.99 64.7l15.214-36.752H512z" fill="#707070"/></svg>
